X:968
T:The Priest and His Boots
N:"Collected by F.O'Neill"
B:O'Neill's 968
Z:Transcribed by Dan G. Petersen, dangp@post6.tele.dk
M:6/8
L:1/8
K:D
c/d/|e2e e2e|efd cBA|dcd fed|cAc e2c/d/|
efe efe|efd cBA|dcd fga|gec d2:|
f/g/|afa geg|fdf ecA|dcd fed|cAc e2(f/g/)|
a2({b/a/}f) g2({a/g/}e)|f2({g/f/}d) ecA|dcd fga|gec d2:|


